images/arrow-circle.svg

<svg fill="none" height="36" viewBox="0 0 36 36" width="36" xmlns="http://www.w3.org/2000/svg" xmlns:xlink="http://www.w3.org/1999/xlink"><mask id="a" height="14" maskUnits="userSpaceOnUse" width="14" x="11" y="11"><path clip-rule="evenodd" d="m17.4108 11.5774c-.3255.3254-.3255.8531 0 1.1785l4.4107 4.4107h-9.6548c-.4602 0-.8333.3731-.8333.8334 0 .4602.3731.8333.8333.8333h9.6548l-4.4107 4.4108c-.3255.3254-.3255.853 0 1.1785.3254.3254.8531.3254 1.1785 0l5.8333-5.8334c.1582-.1581.2394-.3639.2439-.5712.0003-.012.0003-.024 0-.0361-.0022-.1055-.0241-.2062-.0621-.2986-.0406-.0991-.1012-.192-.1818-.2726l-5.8333-5.8333c-.3254-.3254-.8531-.3254-1.1785 0z" fill="#fff" fill-rule="evenodd"/></mask><circle cx="18" cy="18" r="17.5" stroke="#464447"/><path clip-rule="evenodd" d="m17.4108 11.5774c-.3255.3254-.3255.8531 0 1.1785l4.4107 4.4107h-9.6548c-.4602 0-.8333.3731-.8333.8334 0 .4602.3731.8333.8333.8333h9.6548l-4.4107 4.4108c-.3255.3254-.3255.853 0 1.1785.3254.3254.8531.3254 1.1785 0l5.8333-5.8334c.1582-.1581.2394-.3639.2439-.5712.0003-.012.0003-.024 0-.0361-.0022-.1055-.0241-.2062-.0621-.2986-.0406-.0991-.1012-.192-.1818-.2726l-5.8333-5.8333c-.3254-.3254-.8531-.3254-1.1785 0z" fill="#212121" fill-rule="evenodd"/><g mask="url(#a)"><path d="m8 8h20v20h-20z" fill="#464447"/></g></svg>

<svg width="36" height="36" viewBox="0 0 36 36" fill="none" xmlns="http://www.w3.org/2000/svg">
<circle cx="18" cy="18" r="17.5" stroke="#464447"/>
<path fill-rule="evenodd" clip-rule="evenodd" d="M17.4108 11.5774C17.0853 11.9028 17.0853 12.4305 17.4108 12.7559L21.8215 17.1666H12.1667C11.7065 17.1666 11.3334 17.5397 11.3334 18C11.3334 18.4602 11.7065 18.8333 12.1667 18.8333H21.8215L17.4108 23.2441C17.0853 23.5695 17.0853 24.0971 17.4108 24.4226C17.7362 24.748 18.2639 24.748 18.5893 24.4226L24.4226 18.5892C24.5808 18.4311 24.662 18.2253 24.6665 18.018C24.6668 18.006 24.6668 17.994 24.6665 17.9819C24.6643 17.8764 24.6424 17.7757 24.6044 17.6833C24.5638 17.5842 24.5032 17.4913 24.4226 17.4107L18.5893 11.5774C18.2639 11.252 17.7362 11.252 17.4108 11.5774Z" fill="#212121"/>
<mask id="mask0_303_1274" style="mask-type:alpha" maskUnits="userSpaceOnUse" x="11" y="11" width="14" height="14">
<path fill-rule="evenodd" clip-rule="evenodd" d="M17.4108 11.5774C17.0853 11.9028 17.0853 12.4305 17.4108 12.7559L21.8215 17.1666H12.1667C11.7065 17.1666 11.3334 17.5397 11.3334 18C11.3334 18.4602 11.7065 18.8333 12.1667 18.8333H21.8215L17.4108 23.2441C17.0853 23.5695 17.0853 24.0971 17.4108 24.4226C17.7362 24.748 18.2639 24.748 18.5893 24.4226L24.4226 18.5892C24.5808 18.4311 24.662 18.2253 24.6665 18.018C24.6668 18.006 24.6668 17.994 24.6665 17.9819C24.6643 17.8764 24.6424 17.7757 24.6044 17.6833C24.5638 17.5842 24.5032 17.4913 24.4226 17.4107L18.5893 11.5774C18.2639 11.252 17.7362 11.252 17.4108 11.5774Z" fill="white"/>
</mask>
<g mask="url(#mask0_303_1274)">
<rect x="8" y="8" width="20" height="20" fill="#464447"/>
</g>
</svg>
